src/images/header-icon-phone.svg

<svg width="25" height="25" viewBox="0 0 25 25" fill="none" xmlns="http://www.w3.org/2000/svg">
<path d="M22.1537 17.42V20.42C22.1549 20.6985 22.0978 20.9742 21.9863 21.2294C21.8747 21.4845 21.711 21.7136 21.5058 21.9019C21.3006 22.0901 21.0583 22.2335 20.7945 22.3227C20.5307 22.4119 20.2511 22.4451 19.9737 22.42C16.8966 22.0856 13.9407 21.0342 11.3437 19.35C8.92757 17.8147 6.87908 15.7662 5.34374 13.35C3.65372 10.7412 2.60198 7.771 2.27374 4.68001C2.24875 4.40347 2.28162 4.12477 2.37024 3.86163C2.45887 3.59849 2.60131 3.35669 2.78851 3.15163C2.9757 2.94656 3.20355 2.78271 3.45753 2.67053C3.71152 2.55834 3.98608 2.50027 4.26374 2.50001H7.26374C7.74905 2.49523 8.21953 2.66708 8.5875 2.98354C8.95547 3.29999 9.19582 3.73945 9.26374 4.22001C9.39036 5.18007 9.62519 6.12273 9.96374 7.03001C10.0983 7.38793 10.1274 7.77692 10.0476 8.15089C9.96789 8.52485 9.7826 8.86812 9.51374 9.14001L8.24374 10.41C9.6673 12.9136 11.7402 14.9865 14.2437 16.41L15.5137 15.14C15.7856 14.8711 16.1289 14.6859 16.5029 14.6061C16.8768 14.5263 17.2658 14.5555 17.6237 14.69C18.531 15.0286 19.4737 15.2634 20.4337 15.39C20.9195 15.4585 21.3631 15.7032 21.6803 16.0775C21.9974 16.4518 22.1659 16.9296 22.1537 17.42Z" stroke="white" stroke-width="1.5" stroke-linecap="round" stroke-linejoin="round"/>
<path d="M14.2036 2.5C16.2419 2.71477 18.1458 3.6188 19.6005 5.06258C21.0552 6.50636 21.9735 8.40341 22.2036 10.44" stroke="white" stroke-width="1.5" stroke-linecap="round" stroke-linejoin="round"/>
<path d="M14.2036 6.5C15.1871 6.69394 16.0896 7.17903 16.794 7.89231C17.4984 8.60559 17.9721 9.51413 18.1536 10.5" stroke="white" stroke-width="1.5" stroke-linecap="round" stroke-linejoin="round"/>
</svg>

<svg width="25" height="25" fill="none" xmlns="http://www.w3.org/2000/svg"><path d="M22.154 17.42v3a2 2 0 0 1-2.18 2 19.79 19.79 0 0 1-8.63-3.07 19.5 19.5 0 0 1-6-6 19.79 19.79 0 0 1-3.07-8.67 2 2 0 0 1 1.99-2.18h3a2 2 0 0 1 2 1.72c.126.96.361 1.903.7 2.81a2 2 0 0 1-.45 2.11l-1.27 1.27a16 16 0 0 0 6 6l1.27-1.27a2 2 0 0 1 2.11-.45c.907.339 1.85.573 2.81.7a2 2 0 0 1 1.72 2.03ZM14.204 2.5a9 9 0 0 1 8 7.94M14.204 6.5a5 5 0 0 1 3.95 4" stroke="#fff" stroke-width="1.5" stroke-linecap="round" stroke-linejoin="round"/></svg>
